X:18
T:My Darling Asleep
M:6/8
C:Traditional / Key of D
O:Irish
R:Jig
S:EBSP Packet No. 1, p. 10
Z:JMcC-Y, July 31, 2000
K:D
(g|"D"f)dd "A"cAA|"G"BGG "D"A2 (G|F)AA def|({a}"Em"g)fg "A"eag|
"D"fdd "A"cAA|"G"BGG "D"A2 (G|F)AA def|({a}"A"g)ec "D"d3:|
"D"FAA dAA|FAA ({d}"G"B)AG|"D"FAA def|({a}"Em"g)fg "A"eag|
"D"fdd "A"cAA|"G"BGG "D"A2 (G|F)AA def|({a}"A"g)ec "D"d3:|
